X:1
T:Title
%%score ( 1 2 ) ( 3 4 )
L:1/8
Q:1/4=60
M:6/8
K:Bb
V:1 treble nm="Strings 1, Treble"
V:2 treble 
V:3 bass nm="Strings 1, Bass"
V:4 bass 
V:1
 z3 z2 [DF] | [DB]2 [DB] [DB]2 [DF] | [EG]2 [EB] [DF]2 [DF] | z3 .d3 | [Fd]2 [Fc] [Fc]2 [Fd] | %5
w: 1.~The~|bless ed~ Christ~ of~|God~ I~ see,~ In~|land~|Gal i lee,~ He~|
 [Ff]2 [Ff] [Fd][Ec][DB] | .c3 z3 | [DF][DF][DF] [Fd][Ec][Fd] | [DB]3 .[DB]3 | %9
w: speaks~ in~ lov * ing~|words~|"I~ am~ the~ Great~ * Phy|si cian."~|
 [DF][DF][DF] [Fd][Ge][Fd] | [Ec]3 [EF]3 | [EF][EF][EF] [Fd][Ge][Ec] | [DB]3 [DF]3 | %13
w: ||||
 [DB][DB][DB] [FB]2 [Fc] | [Fd]2 [Fd] .[Fd]3 | [Fc][Fc][Fc] [Fc]2 [Fd] | [Fe]2 [Fe] .[Fe]3 | %17
w: ||||
 [Fd][Fd][Fd] [Fd]2 [Fe] | [Ff]2 [Ff] .[Ff]3 | [Fd][Ec][DB] [CA][DB][Ec] | B3 z3 |] %21
w: ||||
V:2
 x6 | x6 | x6 | [DB]2 [DB] F-[Fc][FB] | x6 | x6 | E-[EB][EG] [DF]3 | x6 | x6 | x6 | x6 | x6 | x6 | %13
w: |||* fair~ * * of~|||* * to~ *|||||||
 x6 | x6 | x6 | x6 | x6 | x6 | x6 | D2 E .[DB]3 |] %21
w: ||||||||
V:3
 z3 z2 [B,,B,] | [B,,F,]2 [B,,F,] [B,,F,]2 [B,,B,] | [E,B,]2 [G,B,] B,2 [B,,B,] | %3
 [B,,B,]2 [B,,B,] [B,,B,][C,A,][D,B,] | [F,B,]2 [F,A,] [F,A,]2 B, | [B,D]2 [B,D] B,F,[B,,F,] | %6
 [E,G,]2 [E,B,] .[B,,B,]3 | [F,B,][F,B,][F,B,] [F,B,]F,F, | [B,,F,]3 .[B,,F,]3 | %9
 [B,,B,][B,,B,][B,,B,] [B,,B,]2 [B,,B,] | [F,A,]3 [F,A,]3 | [F,A,][F,A,][F,A,] A,B,[G,,F,A,] | %12
 [B,,B,]3 [B,,B,]3 | [G,B,][G,B,][G,B,] [D,B,]2 [F,A,] | B,2 B, .B,3 | %15
 [F,A,][F,A,][F,A,] [F,A,]2 B, | [A,C]2 [A,C] .[A,C]3 | B,B,B, B,2 [B,C] | [B,D]2 [B,D] .[B,D]3 | %19
 [F,B,][F,A,][F,B,] F,2 F, | .F,3 z3 |] %21
V:4
 x6 | x6 | x6 | x6 | x6 | z3 .B,,3 | x6 | x6 | x6 | x6 | x6 | z3 .F,3 | x6 | x6 | x6 | x6 | x6 | %17
 x6 | x6 | x6 | B,,2- [B,,G,] .[B,,F,]3 |] %21

